X:327
%%etbk:tnset id:99,pos:4,rep:3x,ant:
%%etbk:tnset id:259,pos:5,rep:2x,ant:
%%etbk:tnset id:273,pos:1,rep:3x,ant:
%%etbk:wsite http://www.thesession.org/tunes/display/1736
%%etbk:pldat 2016-06-23T18:59,2016-06-22T16:31,2016-06-20T18:34,2016-05-05T14:20,2016-05-03T15:30,2016-03-11T16:25,2016-03-09T17:00,2016-03-08T17:27,2016-03-07T18:33,2016-02-10T16:36,2015-11-03T17:09,2015-10-28T16:59,2015-10-26T19:04,2015-10-22T18:34,2015-10-19T18:21,2015-10-06T16:34,2015-06-24T19:06,2015-05-28T19:11,2015-04-23T18:22,2015-03-13T18:27,2015-03-10T16:50,2015-03-06T16:49,2015-02-18T17:46,2015-02-14T12:39,2015-01-28T17:29,2014-11-06T18:28,2014-11-04T16:16,2014-11-02T15:40,2014-11-01T13:52,2014-10-30T18:03,2014-10-28T16:01,2014-10-25T14:01,2014-08-21T19:41,2014-08-21T18:31,2014-08-18T19:29,2014-06-25T16:14,2014-06-25T15:27,2014-06-10T18:19,2014-06-04T15:20,2014-03-06T18:15,2014-03-03T18:35,2014-02-27T18:04,2014-02-23T11:35,2014-01-22T15:09,2014-01-21T16:14,2014-01-20T18:00,2014-01-19T12:36,2014-01-15T15:25,2014-01-07T15:14,2013-10-30T15:51,2013-10-28T19:12,2013-10-26T16:25,2013-10-15T18:20,2013-10-11T18:39,2013-10-08T16:16,2013-09-12T17:43,2013-09-11T18:59
T: Hare In The Corn, The
T: Rathawaun
Z: Piano Box Version by Martin Fleischmann
H: Created 2013-02-19 /  Last Modified 2013-02-19
M: 6/8
L: 1/8
R: jig
K: Dmaj
|: "D"!2!F2!3!A AFA | !4!B!5!dB !3!A!2!F!1!D | "A"!3!F2E {G}EDE | "D"!3!F2!1!D !1!D !3!(3D!2!D!1!D |
"D"!2!F2!3!A A!2!F!1!A | !2!B!4!dB !1!A2A | "A"!2!Bc!4!d !2!efe |1 "D"!1!!4!d2!1!A !2!B{d}BA :|2 "D"!1!d3 d2e |
|: "D"!3!fdf fed | "A"!4!g2e {g}ede | "D"!3!faf !3!fed | !3!ada !4!b!3!a!1!g |
"D"!3!f{g}!3!f!3!f !3!fed | "A"!4!g2!2!e !4!e!2!c!1!A |  !2!Bc!4!d !2!efe |1 "D"!1!d3 d2e:|2 "D"!1!!4!d2!1!A !2!B{d}BA ||


